X:135
T:Oats Peas Beans
M:6/8
L:1/8
K:G
|: B2B B2B | AGA G2 G | F2G A2F | G2A B2G |
B2B B2B | AGA GAB | c2B A2G |1 FEF G3 :|2 FEF G2 ||
K:D
|: G | ABA F2 D | G2 B A3 | ABA F2 D | G2 B A3 |
d2 d c2 c | B2 B A2 A | G2 G F2 F |1 EFE D2 :|2 EFE D3 ||
K:G
|: d2d d2d | cBc B2 B | A2B c2A | B2c d2B |
d2d d2d | cBc Bcd | e2d c2B | AGF G3 :||
